icons/solana-light.svg

<svg width="256" height="256" viewBox="0 0 256 256" fill="none" xmlns="http://www.w3.org/2000/svg">
<g clip-path="url(#clip0_29_9)">
<path d="M196 0H60C26.8629 0 0 26.8629 0 60V196C0 229.137 26.8629 256 60 256H196C229.137 256 256 229.137 256 196V60C256 26.8629 229.137 0 196 0Z" fill="#F4F2ED"/>
<g clip-path="url(#clip1_29_9)">
<path d="M227.96 178.763L194.614 213.603C193.889 214.36 193.012 214.963 192.037 215.376C191.062 215.788 190.011 216.001 188.949 216H30.8713C30.117 216 29.3791 215.785 28.7484 215.382C28.1177 214.979 27.6215 214.406 27.3208 213.732C27.0202 213.058 26.9282 212.313 27.0561 211.589C27.184 210.865 27.5263 210.193 28.0408 209.656L61.4122 174.816C62.1352 174.061 63.0094 173.459 63.9808 173.047C64.9524 172.634 66.0004 172.421 67.0602 172.419H225.129C225.883 172.419 226.621 172.634 227.252 173.037C227.882 173.44 228.378 174.013 228.68 174.687C228.98 175.361 229.072 176.106 228.944 176.83C228.816 177.554 228.474 178.226 227.96 178.763ZM194.614 108.606C193.889 107.85 193.012 107.246 192.037 106.834C191.062 106.422 190.011 106.209 188.949 106.21H30.8713C30.117 106.21 29.3791 106.424 28.7484 106.827C28.1177 107.23 27.6215 107.804 27.3208 108.478C27.0202 109.152 26.9282 109.896 27.0561 110.621C27.184 111.345 27.5263 112.017 28.0408 112.554L61.4122 147.394C62.1352 148.148 63.0094 148.75 63.9808 149.163C64.9524 149.575 66.0004 149.789 67.0602 149.79H225.129C225.883 149.79 226.621 149.576 227.252 149.173C227.882 148.77 228.378 148.196 228.68 147.522C228.98 146.848 229.072 146.104 228.944 145.379C228.816 144.655 228.474 143.983 227.96 143.446L194.614 108.606ZM30.8713 83.581H188.949C190.011 83.5814 191.062 83.369 192.037 82.9566C193.012 82.5442 193.889 81.9408 194.614 81.184L227.96 46.3444C228.474 45.8071 228.816 45.1352 228.944 44.411C229.072 43.6868 228.98 42.9421 228.68 42.2682C228.378 41.5943 227.882 41.0206 227.252 40.6176C226.621 40.2147 225.883 40 225.129 40H67.0602C66.0004 40.0018 64.9524 40.2154 63.9808 40.6277C63.0094 41.04 62.1352 41.6422 61.4122 42.397L28.0494 77.2366C27.5354 77.7732 27.1932 78.4446 27.065 79.1678C26.9368 79.8912 27.0281 80.6354 27.3277 81.309C27.6273 81.9826 28.1222 82.5562 28.7516 82.9598C29.3811 83.3634 30.1177 83.5792 30.8713 83.581Z" fill="url(#paint0_linear_29_9)"/>
</g>
</g>
<defs>
<linearGradient id="paint0_linear_29_9" x1="44.0512" y1="220.195" x2="204.987" y2="33.9675" gradientUnits="userSpaceOnUse">
<stop offset="0.08" stop-color="#9945FF"/>
<stop offset="0.3" stop-color="#8752F3"/>
<stop offset="0.5" stop-color="#5497D5"/>
<stop offset="0.6" stop-color="#43B4CA"/>
<stop offset="0.72" stop-color="#28E0B9"/>
<stop offset="0.97" stop-color="#19FB9B"/>
</linearGradient>
<clipPath id="clip0_29_9">
<rect width="256" height="256" fill="white"/>
</clipPath>
<clipPath id="clip1_29_9">
<rect width="202" height="176" fill="white" transform="translate(27 40)"/>
</clipPath>
</defs>
</svg>

<svg xmlns="http://www.w3.org/2000/svg" width="256" height="256" fill="none"><g clip-path="url(#clip0_29_9)"><path fill="#F4F2ED" d="M196 0H60C26.863 0 0 26.863 0 60v136c0 33.137 26.863 60 60 60h136c33.137 0 60-26.863 60-60V60c0-33.137-26.863-60-60-60"/><g clip-path="url(#clip1_29_9)"><path fill="url(#paint0_linear_29_9)" d="m227.96 178.763-33.346 34.84a7.75 7.75 0 0 1-2.577 1.773 7.9 7.9 0 0 1-3.088.624H30.871a3.95 3.95 0 0 1-2.123-.618 3.8 3.8 0 0 1-1.427-1.65 3.7 3.7 0 0 1-.265-2.143c.128-.724.47-1.396.985-1.933l33.371-34.84a7.7 7.7 0 0 1 2.569-1.769 7.9 7.9 0 0 1 3.08-.628h158.068c.754 0 1.492.215 2.123.618.63.403 1.126.976 1.428 1.65.3.674.392 1.419.264 2.143a3.74 3.74 0 0 1-.984 1.933m-33.346-70.157a7.75 7.75 0 0 0-2.577-1.772 7.9 7.9 0 0 0-3.088-.624H30.871c-.754 0-1.492.214-2.123.617a3.8 3.8 0 0 0-1.427 1.651 3.7 3.7 0 0 0-.265 2.143c.128.724.47 1.396.985 1.933l33.371 34.84a7.8 7.8 0 0 0 2.569 1.769 7.9 7.9 0 0 0 3.08.627h158.068c.754 0 1.492-.214 2.123-.617a3.8 3.8 0 0 0 1.428-1.651c.3-.674.392-1.418.264-2.143a3.74 3.74 0 0 0-.984-1.933zM30.871 83.581H188.95a7.9 7.9 0 0 0 3.088-.624 7.75 7.75 0 0 0 2.577-1.773l33.346-34.84a3.74 3.74 0 0 0 .984-1.933 3.7 3.7 0 0 0-.264-2.143 3.8 3.8 0 0 0-1.428-1.65A3.95 3.95 0 0 0 225.13 40H67.06a7.9 7.9 0 0 0-3.08.628 7.75 7.75 0 0 0-2.568 1.769L28.05 77.237a3.74 3.74 0 0 0-.984 1.93 3.7 3.7 0 0 0 .263 2.142 3.8 3.8 0 0 0 1.424 1.65c.63.404 1.366.62 2.12.622"/></g></g><defs><clipPath id="clip0_29_9"><path fill="#fff" d="M0 0h256v256H0z"/></clipPath><clipPath id="clip1_29_9"><path fill="#fff" d="M27 40h202v176H27z"/></clipPath><linearGradient id="paint0_linear_29_9" x1="44.051" x2="204.987" y1="220.195" y2="33.968" gradientUnits="userSpaceOnUse"><stop offset=".08" stop-color="#9945FF"/><stop offset=".3" stop-color="#8752F3"/><stop offset=".5" stop-color="#5497D5"/><stop offset=".6" stop-color="#43B4CA"/><stop offset=".72" stop-color="#28E0B9"/><stop offset=".97" stop-color="#19FB9B"/></linearGradient></defs></svg>
